X: 43
T:Top of Cork Road, The
T:Father O'Flynn
M:6/8
L:1/8
R:jig
K:D
A|"D"dAF DFA|ded "A"cBA|"D"cd "A"efg|"D"fdf "A"ecA|
"D"dAF DFA|ded "A"cBA|"G"dcd "A"efg|"D"fdd d2::
e|f"D"df fga|"A"ecA ABc|"Bm"dcd Bed|"A"cAA A2=c|
"G"BGB Bcd|"D"AFA DFA|dcd "A"efg|"D"fdd d2:|
